src/assets/images/details/13.svg

<svg width="32" height="32" viewBox="0 0 32 32" fill="none" xmlns="http://www.w3.org/2000/svg">
<path d="M3.00021 1.09997C4.2129 0.740272 5.50009 1.49998 6.00009 1.99998C6.49997 1.50001 8.16818 0.168183 9.75 1.75001C11.0248 3.02476 10.5002 4.99997 9.50015 6.49997C8.91141 7.38308 7.38383 8.7717 6.1531 9.70922C5.50894 10.1999 4.61341 10.0545 4.0674 9.45654C3.14284 8.44398 1.97268 7.14513 1.4001 5.99997C0.400103 3.99997 1.4003 1.57453 3.00021 1.09997Z" fill="url(#paint0_linear_20_194)"/>
<path d="M4.00015 28C2.88205 26.882 2.50013 25 3.50012 24C4.50011 23 6.50007 23.5 6.50007 23.5C6.50007 23.5 7.00015 22.25 8.50015 22.5C10.5002 22.75 10.7502 25 10.2502 26.5C9.8681 27.6462 8.94272 28.8686 8.2707 29.6561C7.83861 30.1624 7.10261 30.2351 6.55273 29.86C5.62817 29.2293 4.3159 28.3157 4.00015 28Z" fill="url(#paint1_linear_20_194)"/>
<g filter="url(#filter0_f_20_194)">
<path d="M21 18.1C22.5 17.6 24.1667 19 24.5 19.5C24.6667 19 25.4 18 27 18C29 18 27.5571 20.1073 27 21.5C26.3751 23.0622 25.3598 24.9797 24.6859 26.1985C24.355 26.7971 23.5369 26.8749 23.0937 26.354C22.1005 25.1867 20.5722 23.3584 20 22.5C19 21 19.1026 18.7325 21 18.1Z" fill="#E4694E"/>
</g>
<path d="M23 17.1C24.5 16.6 26.1667 18 26.5 18.5C26.6667 18 27.4 17 29 17C31 17 31.5571 19.1073 31 20.5C30.2698 22.3255 27.94 24.6362 26.736 25.7502C26.3333 26.1228 25.7111 26.0769 25.3546 25.6599C24.3916 24.5336 22.6252 22.4378 22 21.5C21 20 21.1026 17.7325 23 17.1Z" fill="url(#paint2_linear_20_194)"/>
<g opacity="0.8" filter="url(#filter1_f_20_194)">
<path d="M9.5 2.5L7 5" stroke="white"/>
</g>
<g opacity="0.8" filter="url(#filter2_f_20_194)">
<path d="M25 18.5L27.5 21.5L29.5 19" stroke="white"/>
</g>
<g opacity="0.6" filter="url(#filter3_f_20_194)">
<path d="M7.5 29.5L9 26" stroke="#F944A5" stroke-width="2"/>
</g>
<g filter="url(#filter4_f_20_194)">
<path d="M26.5 24.5L23 20" stroke="#F944A5"/>
</g>
<g filter="url(#filter5_f_20_194)">
<path d="M5.5 8.5L8 6" stroke="#F944A5"/>
</g>
<defs>
<filter id="filter0_f_20_194" x="17.3735" y="15.9938" width="12.6526" height="12.7068" filterUnits="userSpaceOnUse" color-interpolation-filters="sRGB">
<feFlood flood-opacity="0" result="BackgroundImageFix"/>
<feBlend mode="normal" in="SourceGraphic" in2="BackgroundImageFix" result="shape"/>
<feGaussianBlur stdDeviation="1" result="effect1_foregroundBlur_20_194"/>
</filter>
<filter id="filter1_f_20_194" x="4.64648" y="0.146423" width="7.20703" height="7.20715" filterUnits="userSpaceOnUse" color-interpolation-filters="sRGB">
<feFlood flood-opacity="0" result="BackgroundImageFix"/>
<feBlend mode="normal" in="SourceGraphic" in2="BackgroundImageFix" result="shape"/>
<feGaussianBlur stdDeviation="1" result="effect1_foregroundBlur_20_194"/>
</filter>
<filter id="filter2_f_20_194" x="22.616" y="16.1799" width="9.27441" height="8.1106" filterUnits="userSpaceOnUse" color-interpolation-filters="sRGB">
<feFlood flood-opacity="0" result="BackgroundImageFix"/>
<feBlend mode="normal" in="SourceGraphic" in2="BackgroundImageFix" result="shape"/>
<feGaussianBlur stdDeviation="1" result="effect1_foregroundBlur_20_194"/>
</filter>
<filter id="filter3_f_20_194" x="5.58081" y="24.6061" width="5.33838" height="6.28784" filterUnits="userSpaceOnUse" color-interpolation-filters="sRGB">
<feFlood flood-opacity="0" result="BackgroundImageFix"/>
<feBlend mode="normal" in="SourceGraphic" in2="BackgroundImageFix" result="shape"/>
<feGaussianBlur stdDeviation="0.5" result="effect1_foregroundBlur_20_194"/>
</filter>
<filter id="filter4_f_20_194" x="20.6052" y="17.6931" width="8.28955" height="9.11389" filterUnits="userSpaceOnUse" color-interpolation-filters="sRGB">
<feFlood flood-opacity="0" result="BackgroundImageFix"/>
<feBlend mode="normal" in="SourceGraphic" in2="BackgroundImageFix" result="shape"/>
<feGaussianBlur stdDeviation="1" result="effect1_foregroundBlur_20_194"/>
</filter>
<filter id="filter5_f_20_194" x="3.14648" y="3.64642" width="7.20703" height="7.20715" filterUnits="userSpaceOnUse" color-interpolation-filters="sRGB">
<feFlood flood-opacity="0" result="BackgroundImageFix"/>
<feBlend mode="normal" in="SourceGraphic" in2="BackgroundImageFix" result="shape"/>
<feGaussianBlur stdDeviation="1" result="effect1_foregroundBlur_20_194"/>
</filter>
<linearGradient id="paint0_linear_20_194" x1="4.5" y1="3.5" x2="8.13606" y2="8.27701" gradientUnits="userSpaceOnUse">
<stop stop-color="#DC2E50"/>
<stop offset="1" stop-color="#F70A8D"/>
</linearGradient>
<linearGradient id="paint1_linear_20_194" x1="6" y1="24.5" x2="9.34217" y2="29.9066" gradientUnits="userSpaceOnUse">
<stop stop-color="#CA0B4A"/>
<stop offset="1" stop-color="#F70A8D"/>
</linearGradient>
<linearGradient id="paint2_linear_20_194" x1="29.0995" y1="18.0367" x2="25.8756" y2="25.428" gradientUnits="userSpaceOnUse">
<stop stop-color="#CA0B4A"/>
<stop offset="1" stop-color="#F70A8D"/>
</linearGradient>
</defs>
</svg>

<svg width="32" height="32" fill="none" xmlns="http://www.w3.org/2000/svg"><path d="M3 1.1c1.213-.36 2.5.4 3 .9.5-.5 2.168-1.832 3.75-.25C11.025 3.025 10.5 5 9.5 6.5c-.589.883-2.116 2.272-3.347 3.21-.644.49-1.54.345-2.086-.253C3.143 8.444 1.973 7.145 1.4 6c-1-2 0-4.425 1.6-4.9z" fill="url(#a)"/><path d="M4 28c-1.118-1.118-1.5-3-.5-4s3-.5 3-.5.5-1.25 2-1c2 .25 2.25 2.5 1.75 4-.382 1.146-1.307 2.369-1.98 3.156-.431.506-1.167.58-1.717.204C5.628 29.23 4.316 28.316 4 28z" fill="url(#b)"/><g filter="url(#c)"><path d="M21 18.1c1.5-.5 3.167.9 3.5 1.4.167-.5.9-1.5 2.5-1.5 2 0 .557 2.107 0 3.5-.625 1.562-1.64 3.48-2.314 4.698a.97.97 0 0 1-1.592.156C22.1 25.187 20.572 23.358 20 22.5c-1-1.5-.897-3.767 1-4.4z" fill="#E4694E"/></g><path d="M23 17.1c1.5-.5 3.167.9 3.5 1.4.167-.5.9-1.5 2.5-1.5 2 0 2.557 2.107 2 3.5-.73 1.826-3.06 4.136-4.264 5.25a.956.956 0 0 1-1.381-.09c-.963-1.126-2.73-3.222-3.355-4.16-1-1.5-.897-3.767 1-4.4z" fill="url(#d)"/><g opacity=".8" filter="url(#e)"><path d="M9.5 2.5 7 5" stroke="#fff"/></g><g opacity=".8" filter="url(#f)"><path d="m25 18.5 2.5 3 2-2.5" stroke="#fff"/></g><g opacity=".6" filter="url(#g)"><path d="M7.5 29.5 9 26" stroke="#F944A5" stroke-width="2"/></g><g filter="url(#h)"><path d="M26.5 24.5 23 20" stroke="#F944A5"/></g><g filter="url(#i)"><path d="M5.5 8.5 8 6" stroke="#F944A5"/></g><defs><filter id="c" x="17.373" y="15.994" width="12.653" height="12.707" filterUnits="userSpaceOnUse" color-interpolation-filters="sRGB"><feFlood flood-opacity="0" result="BackgroundImageFix"/><feBlend in="SourceGraphic" in2="BackgroundImageFix" result="shape"/><feGaussianBlur stdDeviation="1" result="effect1_foregroundBlur_20_194"/></filter><filter id="e" x="4.646" y=".146" width="7.207" height="7.207" filterUnits="userSpaceOnUse" color-interpolation-filters="sRGB"><feFlood flood-opacity="0" result="BackgroundImageFix"/><feBlend in="SourceGraphic" in2="BackgroundImageFix" result="shape"/><feGaussianBlur stdDeviation="1" result="effect1_foregroundBlur_20_194"/></filter><filter id="f" x="22.616" y="16.18" width="9.274" height="8.111" filterUnits="userSpaceOnUse" color-interpolation-filters="sRGB"><feFlood flood-opacity="0" result="BackgroundImageFix"/><feBlend in="SourceGraphic" in2="BackgroundImageFix" result="shape"/><feGaussianBlur stdDeviation="1" result="effect1_foregroundBlur_20_194"/></filter><filter id="g" x="5.581" y="24.606" width="5.338" height="6.288" filterUnits="userSpaceOnUse" color-interpolation-filters="sRGB"><feFlood flood-opacity="0" result="BackgroundImageFix"/><feBlend in="SourceGraphic" in2="BackgroundImageFix" result="shape"/><feGaussianBlur stdDeviation=".5" result="effect1_foregroundBlur_20_194"/></filter><filter id="h" x="20.605" y="17.693" width="8.29" height="9.114" filterUnits="userSpaceOnUse" color-interpolation-filters="sRGB"><feFlood flood-opacity="0" result="BackgroundImageFix"/><feBlend in="SourceGraphic" in2="BackgroundImageFix" result="shape"/><feGaussianBlur stdDeviation="1" result="effect1_foregroundBlur_20_194"/></filter><filter id="i" x="3.146" y="3.646" width="7.207" height="7.207" filterUnits="userSpaceOnUse" color-interpolation-filters="sRGB"><feFlood flood-opacity="0" result="BackgroundImageFix"/><feBlend in="SourceGraphic" in2="BackgroundImageFix" result="shape"/><feGaussianBlur stdDeviation="1" result="effect1_foregroundBlur_20_194"/></filter><linearGradient id="a" x1="4.5" y1="3.5" x2="8.136" y2="8.277" gradientUnits="userSpaceOnUse"><stop stop-color="#DC2E50"/><stop offset="1" stop-color="#F70A8D"/></linearGradient><linearGradient id="b" x1="6" y1="24.5" x2="9.342" y2="29.907" gradientUnits="userSpaceOnUse"><stop stop-color="#CA0B4A"/><stop offset="1" stop-color="#F70A8D"/></linearGradient><linearGradient id="d" x1="29.099" y1="18.037" x2="25.876" y2="25.428" gradientUnits="userSpaceOnUse"><stop stop-color="#CA0B4A"/><stop offset="1" stop-color="#F70A8D"/></linearGradient></defs></svg>
